!!!OTL: The Waefu' Heart
!!!id: HA009
**kern
*clefF4
*k[b-]
*F:
*M4/4
{4f
=1
4.f
8g
4a
8g
8f
=2
4.g
8a
4b-}
{8a
8g
=3
4f
8a
8cc
8dd
8cc
8b-
8a
=4
2a
4g}
8r
{8f
=5
4.f
8e
4.d
8c
=6
4d
8.f
16g
4.a}
{8dd
=7
4.cc
8dd
4cc
4g
=8
2.f}
{4cc
=9
4.cc
16dd
16ee
4.ff
16ee
16dd
=10
4.cc
16dd
16b-
4.a}
{8b-
=11
4.cc
8dd
8cc
8a
8g
8f
=12
2a
4g}
8r
{8f
=13
4f
8a
8cc
4.dd
8cc
=14
4.ff
8gg
4ff}
8r
{16ee
16dd
=15
16cc
8.a
16ff
8.dd
16cc
8.a
4g
=16
2.f}
==
*-
!!!minrhy: 16
!!!meter: 4/4
!!!cut: The Waefu' Heart
!!!key: HA009  16  F 4/4
!!!bem: Vorschlge, Bindungen, Triller, Orgelpunkte weggelassen
!!!fog: a--b--c--d--e--f--g--h--
!! Haydn: Volksliedbearbeitungen, Bd1
